X:1
T:St. Theodulph, 7 6 7 6 D (Iambic)
T:St. Theodulph, 7 6 7 6 D (Iambic)
T:Public  domain
Z:Public  domain
%%score ( 1 2 ) ( 3 4 )
L:1/8
Q:1/4=110
M:4/4
K:Bb
V:1 treble nm="Unnamed-000"
V:2 treble 
V:3 bass nm="St. Theodulph"
V:4 bass 
V:1
 (B,2 | [CF]2 [B,F]2 [B,G]2 [EA]2 | B4 [DB]2 [Fd]2 | c2 [DB]2 [CB]2 [CA]2 | [DB]6) B,2 | %5
 [CF]2 [B,F]2 [B,G]2 [EA]2 | B4 [DB]2 [Fd]2 | c2 [DB]2 [CB]2 [CA]2 | [DB]6 |] ([DB]2 | %10
 [Fd]2 [Gd]2 [Gc]2 [=EB]2 | [FA]2 [=EG]2 [CF]2 [FA]2 | [DB]2 [FA]2 G2 [=EG]2 | F6) [CF]2 | %14
 [B,D]2 [B,F]2 [B,G]2 [B,F]2 | [CF]2 [A,E]2 [B,D]2 [B,F]2 | [B,E]2 [B,D]2 C2 [A,C]2 x | B,6 |] %18
V:2
 x2 | x8 | E2 D C x4 | F E x6 | x8 | x8 | E2 D C x4 | F E x6 | x6 |] x2 | x8 | x8 | x4 F2 x2 | x8 | %14
 x8 | x8 | x4 B,2 x3 | x6 |] %18
V:3
 ([B,,D,]2 | [A,,F,]2 [B,,D,]2 E,2 [C,F,]2 | [B,,F,]4 [B,,F,]2 B,2 | [F,A,]2 [G,B,]2 [E,G,]2 F,2 | %4
 [B,,F,]6) [B,,D,]2 | [A,,F,]2 [B,,D,]2 E,2 [C,F,]2 | [B,,F,]4 [B,,F,]2 B,2 | %7
 [F,A,]2 [G,B,]2 [F,A,]2 F,2 | [B,,F,]6 |] ([B,,F,]2 | B,2 [=E,C]2 [C,C]2 x2 | %11
 [F,C]2 [C,B,]2 [F,A,]2 [D,D]2 | [G,,B,]2 [A,,C]2 [B,,D]2 C B, | [F,,A,]6) [A,,F,]2 | %14
 [B,,F,]2 [D,F,]2 E,2 [B,,D,]2 | F,4 [B,,F,]2 [D,F,]2 | [E,G,]2 [B,,F,]2 F,3 F,,- [F,,E,] | %17
 [B,,D,]6 |] %18
V:4
 x2 | x8 | x8 | x8 | x8 | x8 | x8 | x8 | x6 |] x2 | B, A, G, F, x4 | x8 | x6 C,2 | x8 | x8 | %15
 A,,2 F,,2 x4 | x4 F,,2 x3 | x6 |] %18

